X:42
T:Le soleil
T:Het so
C:Trad.
O:France
A:Ari?ge
Z:Transcrit et/ou corrig? par Michel BELLON - 2007-09-06
Z:Pour toute observation mailto:galouvielle@free.fr
M:6/8
L:1/8
K:C
e | e2e g2f | e2d c2e | e2e g2c | d3 c2 ::
B | B2B d2c | B2A G2B | B2B d2G | A3 G2 :|

<end>
<start>
